src/actions/24/distribute-vertical-center.svg

<?xml version="1.0" encoding="UTF-8" standalone="no"?>
<svg
   xmlns:dc="http://purl.org/dc/elements/1.1/"
   xmlns:cc="http://creativecommons.org/ns#"
   xmlns:rdf="http://www.w3.org/1999/02/22-rdf-syntax-ns#"
   xmlns:svg="http://www.w3.org/2000/svg"
   xmlns="http://www.w3.org/2000/svg"
   xmlns:sodipodi="http://sodipodi.sourceforge.net/DTD/sodipodi-0.dtd"
   xmlns:inkscape="http://www.inkscape.org/namespaces/inkscape"
   viewBox="0 0 24 24"
   id="svg2"
   version="1.1"
   inkscape:version="0.91 r13725"
   sodipodi:docname="distribute-vertical-center.svg">
  <metadata
     id="metadata10">
    <rdf:RDF>
      <cc:Work
         rdf:about="">
        <dc:format>image/svg+xml</dc:format>
        <dc:type
           rdf:resource="http://purl.org/dc/dcmitype/StillImage" />
      </cc:Work>
    </rdf:RDF>
  </metadata>
  <sodipodi:namedview
     pagecolor="#ffffff"
     bordercolor="#666666"
     borderopacity="1"
     objecttolerance="10"
     gridtolerance="10"
     guidetolerance="10"
     inkscape:pageopacity="0"
     inkscape:pageshadow="2"
     inkscape:window-width="1920"
     inkscape:window-height="1025"
     id="namedview8"
     showgrid="false"
     inkscape:zoom="9.8333333"
     inkscape:cx="-6.5084746"
     inkscape:cy="11.186441"
     inkscape:window-x="0"
     inkscape:window-y="26"
     inkscape:window-maximized="1"
     inkscape:current-layer="svg2" />
  <defs
     id="defs3051">
    <style
       type="text/css"
       id="current-color-scheme">
      .ColorScheme-Text {
        color:#363636;
      }
      </style>
  </defs>
  <path
     style="color:#363636;fill:currentColor;fill-opacity:1;stroke:none"
     d="m 20,10 -2,-3 -2,3 4,0 z m 0,4 -4,0 2,3 2,-3 z M 17,7 15,7 15,4 8,4 8,7 4,7 l 0,1 4,0 0,3 7,0 0,-3 2,0 0,-1 z m 0,9 -2,0 0,-3 -9,0 0,3 -2,0 0,1 2,0 0,3 9,0 0,-3 2,0 0,-1 z m -3,-11 0,5 -5,0 0,-5 5,0 z m 0,9 0,5 -7,0 0,-5 7,0 z"
     class="ColorScheme-Text"
     id="path6"
     inkscape:connector-curvature="0" />
</svg>

<svg xmlns="http://www.w3.org/2000/svg" viewBox="0 0 24 24">
    <path d="m20 10-2-3-2 3h4zm0 4h-4l2 3 2-3zm-3-7h-2V4H8v3H4v1h4v3h7V8h2V7zm0 9h-2v-3H6v3H4v1h2v3h9v-3h2v-1zM14 5v5H9V5h5zm0 9v5H7v-5h7z" style="color:#050505;fill:currentColor;fill-opacity:.7;stroke:none;opacity:.7"/>
</svg>
